X:809
T:Calum's Road 
C:Joe Buchanan's Scottish Tome - Page 071.0
I:071 0
C:D. Shaw
R:Strathspey
Z:Carl Allison
L:1/8
M:4/4
K:D
D3 A2 F | A3 F2 A | B d2 d2 c | B2 A F A2 |
B3 d2 E | F3 E2 D | B, D2 D2 F | E6 |
D3 A2 F | A3 F2 A | B d2 d2 c | B2 A F A2 |
B3 d2 E | F3 E2 D | B, D2 D2 E | (D3 D2) |]
A | B3 d2 c | (B3 B2) B | A2 B A E2 | F3 F A2 |
B3 d2 c | B3 A2 B | d3 d2 e | fed dBA |
B3 d2 c | (B3 B2) B | A2 B A E2 | F3 F2 A |
B3 d2 E | F3 E2 D | B, D2 D2 E | D6 |]

